!!!COM: Fux, Johann Joseph
!!!OMD: Gradus ad Parnassum Exercise
!!!YEC: CC0 1.0 Universal (Public Domain). Mark Gotham and FourScoreAndMore.org waive all rights to this document.
**kern	**kern	**kern
*part3	*part2	*part1
*staff3	*staff2	*staff1
*I"3	*I"2	*I"1
*I'Pno	*I'Pno	*I'Pno
!!LO:LB:g=z
*clefF4	*clefGv2	*clefG2
*k[]	*k[]	*k[]
!!LO:TX:omd:t=
*M4/4	*M4/4	*M4/4
=152	=152	=152
!	!	!LO:TX:a:t=Fig. 117; Species&colon; 1; Modal final&colon; a; Cantus firmus&colon; 3
1AA	1A	1c
=153	=153	=153
1C	1A	1e
=154	=154	=154
1BB	1B	1d
=155	=155	=155
1D	1B	1f
=156	=156	=156
1C	1c	1e
=157	=157	=157
1E	1G	1c
=158	=158	=158
1F	1A	1c
=159	=159	=159
1E	1G	1c
=160	=160	=160
1D	1F	1d
=161	=161	=161
1C	1E	1A
=162	=162	=162
1BB	1D	1G#X
=163	=163	=163
1AA	1E	1A
==	==	==
*-	*-	*-
!!!software: music21 v.9.7.1
!!!software: music21 v.9.7.1
!!!software: MuseScore 3.4.2
!!!RDF**kern: > = above
!!!RDF**kern: < = below
